source/svgs/bowtie/uEA27-step-shared.svg

<svg xmlns="http://www.w3.org/2000/svg" viewBox="0 0 448 448" enable-background="new 0 0 448 448"><path d="M416 192v-160h-192v96h-128v96h-96v160h192v32h256v-224h-32zm-96 0v96h-128v64h-160v-96h96v-96h128v-96h128v128h-64z"/></svg>

<svg xmlns="http://www.w3.org/2000/svg" viewBox="0 0 448 448"><path d="M416 192V32H224v96H96v96H0v160h192v32h256V192h-32zm-96 0v96H192v64H32v-96h96v-96h128V64h128v128h-64z"/></svg>
